X: 33
T: Armand's New Apron
C: Armand Aromin
H: 3/26/05
M: 6/8
L: 1/8
R: Jig
K: Gmaj
DEG A2 B | DEG A2 B | c3 BcB | AGE E2 G |
DEG A2 B | DEG A2 B | c3 BcB | A3 AGE :|
DGG AGG | BGG AGE | DGG AGA | BAG AGE |
DGG AGG | BGG GAB | cdc BcB | AGE E2 G :|
